icons/icn_foto.svg

<svg width="24" xmlns="http://www.w3.org/2000/svg" height="24" id="screenshot-7f4951e7-eba4-8056-8006-5185c74bf0a1" viewBox="0 0 24 24" xmlns:xlink="http://www.w3.org/1999/xlink" fill="none" version="1.1"><g id="shape-7f4951e7-eba4-8056-8006-5185c74bf0a1"><g class="frame-container-wrapper"><g class="frame-container-blur"><g class="frame-container-shadows"><g fill="none"><g class="fills" id="fills-7f4951e7-eba4-8056-8006-5185c74bf0a1"><rect rx="0" ry="0" x="0" y="0" width="24" height="24.000000000000455" transform="matrix(1, 0, 0, 1, 0, 0)" class="frame-background"/></g><g class="frame-children"><g id="shape-99ce6fa3-641d-80f7-8006-51859651a50a" width="19.746" height="19.393" version="1.1" rx="0" ry="0" style="fill: rgb(0, 0, 0);"><g id="shape-99ce6fa3-641d-80f7-8006-518596570eda" style="opacity: 1;"><g class="fills" id="fills-99ce6fa3-641d-80f7-8006-518596570eda"><path d="M2.5203542709350586,2.3014838695526123C2.5203542709350586,2.3009955883026123,2.5203542709350586,2.3733832836151123,2.0315847396850586,2.5025336742401123C2.0315847396850586,2.6316840648651123,2.0315847396850586,2.8068549633026123,2.0315847396850586,2.9891059398651123L2.0315847396850586,13.157563209533691L2.0315847396850586,13.192719459533691L2.0315847396850586,13.208222389221191L2.0315847396850586,21.012908935546875C2.0315847396850586,21.194915771484375,2.0315847396850586,21.369476318359375,2.0315847396850586,21.498260498046875C2.5203542709350586,21.626922607421875,2.5203542709350586,21.699066162109375,2.5203542709350586,21.698577880859375L21.096281051635742,21.698577880859375C21.585050582885742,21.699066162109375,21.585050582885742,21.626922607421875,21.585050582885742,21.498260498046875C22.074064254760742,21.369476318359375,22.074064254760742,21.194915771484375,22.074064254760742,21.012908935546875L22.074064254760742,13.483735084533691L22.074064254760742,13.399750709533691L22.074064254760742,13.389985084533691L22.074064254760742,2.9891059398651123C22.074064254760742,2.8067328929901123,22.074064254760742,2.6315619945526123,21.585050582885742,2.5025336742401123C21.585050582885742,2.3733832836151123,21.585050582885742,2.3009955883026123,21.096281051635742,2.3013617992401123ZM3.4981374740600586,3.6690375804901123L20.607511520385742,3.6690375804901123L20.607511520385742,12.942597389221191L20.607511520385742,13.614716529846191C20.118497848510742,14.117890357971191,19.629728317260742,14.782685279846191,19.140958786010742,15.312348365783691C18.652189254760742,15.842011451721191,17.674406051635742,16.271575927734375,16.207853317260742,16.271575927734375C15.230315208435059,16.271575927734375,14.252532005310059,15.932953834533691,13.763762474060059,15.378754615783691C13.274992942810059,14.824555397033691,12.785979270935059,14.009247779846191,12.297209739685059,13.134125709533691C11.808440208435059,12.258881568908691,11.319426536560059,11.323700904846191,10.341887474060059,10.565155982971191C9.853117942810059,9.806488990783691,8.386565208435059,9.265961647033691,6.920012474060059,9.265961647033691C5.942229270935059,9.265961647033691,4.475676536560059,10.171967506408691,3.9869070053100586,10.977387428283691C3.4981374740600586,11.115815162658691,3.4981374740600586,11.253266334533691,3.4981374740600586,11.387543678283691ZM15.719084739685059,6.001556873321533C14.252532005310059,6.001556873321533,13.274992942810059,7.123138904571533,13.274992942810059,8.496308326721191C13.274992942810059,9.869355201721191,14.252532005310059,11.000824928283691,15.719084739685059,11.000824928283691C17.185636520385742,11.000824928283691,18.163175582885742,9.869355201721191,18.163175582885742,8.496308326721191C18.163175582885742,7.123138904571533,17.185636520385742,6.001556873321533,15.719084739685059,6.001556873321533ZM15.719084739685059,7.337860584259033C16.207853317260742,7.337860584259033,16.696622848510742,7.848480701446533,16.696622848510742,8.496308326721191C16.696622848510742,9.144135475158691,16.207853317260742,9.656708717346191,15.719084739685059,9.656708717346191C15.230315208435059,9.656708717346191,14.741301536560059,9.144135475158691,14.741301536560059,8.496308326721191C14.741301536560059,7.848480701446533,15.230315208435059,7.337860584259033,15.719084739685059,7.337860584259033ZM6.920012474060059,10.735077857971191C8.386565208435059,10.735077857971191,8.875334739685059,11.073700904846191,9.364104270935059,11.627900123596191C9.853117942810059,12.182099342346191,10.341887474060059,12.989472389221191,10.830657005310059,13.864716529846191C11.319426536560059,14.739960670471191,11.808440208435059,15.682831764221191,12.785979270935059,16.441497802734375C13.763762474060059,17.200164794921875,14.741301536560059,17.734710693359375,16.207853317260742,17.734710693359375C18.163175582885742,17.734710693359375,19.140958786010742,17.178924560546875,20.118497848510742,16.427825927734375C20.118497848510742,16.302703857421875,20.607511520385742,16.171234130859375,20.607511520385742,16.039031982421875L20.607511520385742,20.332977294921875L3.4981374740600586,20.332977294921875L3.4981374740600586,13.761200904846191L3.4981374740600586,13.415375709533691C3.4981374740600586,13.415375709533691,3.9869070053100586,12.713471412658691,4.964690208435059,12.018525123596191C5.453459739685059,11.323700904846191,6.431242942810059,10.735077857971191,6.920012474060059,10.735077857971191Z" style="display: inline; stroke-linecap: square; stroke-linejoin: round; fill: rgb(0, 0, 0); fill-opacity: 1;"/></g></g></g></g></g></g></g></g></g></svg>

<svg fill="none" viewBox="0 0 24 24"><g class="frame-container-wrapper"><g class="frame-container-blur"><g class="frame-container-shadows"><g class="fills"><rect width="24" height="24" class="frame-background" rx="0" ry="0"/></g><g class="frame-children"><path fill="#000" d="M2.5204 2.3015c0-.0005 0 .0719-.4888.201V21.4983c.4888.1286.4888.2008.4888.2003h18.5759c.4888.0005.4888-.0717.4888-.2003.489-.1288.489-.3034.489-.4854V2.9891c0-.1824 0-.3575-.489-.4866 0-.1291 0-.2015-.4888-.2011ZM3.498 3.669h17.1094v9.9457c-.489.5032-.9778 1.168-1.4665 1.6976-.4888.5297-1.4666.9593-2.9331.9593-.9776 0-1.9554-.3386-2.4441-.8928-.4888-.5542-.9778-1.3696-1.4666-2.2447-.4888-.8752-.9778-1.8104-1.9553-2.569C9.853 9.8066 8.3866 9.266 6.92 9.266c-.9778 0-2.4443.906-2.933 1.7114-.4889.1384-.4889.2759-.4889.4101Zm12.221 2.3326c-1.4666 0-2.4441 1.1215-2.4441 2.4947 0 1.373.9775 2.5045 2.444 2.5045 1.4666 0 2.4442-1.1314 2.4442-2.5045 0-1.3732-.9776-2.4947-2.4441-2.4947Zm0 1.3363c.4888 0 .9775.5106.9775 1.1584s-.4887 1.1604-.9775 1.1604-.9778-.5126-.9778-1.1604c0-.6478.489-1.1584.9778-1.1584ZM6.92 10.735c1.4665 0 1.9552.3386 2.444.8928.489.5542.9778 1.3616 1.4666 2.2368.4887.8753.9777 1.8181 1.9553 2.5768.9778.7587 1.9553 1.2932 3.4219 1.2932 1.9553 0 2.933-.5558 3.9106-1.3069 0-.1251.489-.2566.489-.3888v4.294H3.4981V13.4154s.4888-.702 1.4666-1.3969c.4888-.6948 1.4665-1.2834 1.9553-1.2834Z" class="fills"/></g></g></g></g></svg>
